src/assets/icons/contacts-2 1.svg

<svg xmlns="http://www.w3.org/2000/svg" width="24" height="24" fill="none" viewBox="0 0 24 24">
  <path fill="#FF4267" d="M24 4h-3v5h3V4Zm0 7h-3v5h3v-5ZM17 0H1v24h16c1.654 0 3-1.346 3-3V3c0-1.654-1.346-3-3-3Zm-6.5 6a2.5 2.5 0 1 1 0 5 2.5 2.5 0 0 1 0-5ZM15 17H6v-1.621c0-.891.585-1.67 1.44-1.922A10.906 10.906 0 0 1 10.5 13c1.197 0 2.265.222 3.06.457A2.001 2.001 0 0 1 15 15.379V17Z"/>
</svg>

<svg width="24" height="24" viewBox="0 0 24 24" fill="none" xmlns="http://www.w3.org/2000/svg">
<path d="M24 4H21V9H24V4Z" fill="#FF4267"/>
<path d="M24 11H21V16H24V11Z" fill="#FF4267"/>
<path d="M17 0H1V24H17C18.654 24 20 22.654 20 21V3C20 1.346 18.654 0 17 0ZM10.5 6C11.881 6 13 7.119 13 8.5C13 9.881 11.881 11 10.5 11C9.119 11 8 9.881 8 8.5C8 7.119 9.119 6 10.5 6ZM15 17H6V15.379C6 14.488 6.585 13.709 7.44 13.457C8.235 13.222 9.303 13 10.5 13C11.697 13 12.765 13.222 13.56 13.457C14.415 13.709 15 14.488 15 15.379V17Z" fill="#FF4267"/>
</svg>
